dist/icons/grid2.svg

<svg xmlns="http://www.w3.org/2000/svg" width="32" height="32" viewBox="0 0 32 32"><path d="M2 2h8v8H2zm10 0h8v8h-8zm10 0h8v8h-8zM2 12h8v8H2zm10 0h8v8h-8zm10 0h8v8h-8zM2 22h8v8H2zm10 0h8v8h-8zm10 0h8v8h-8z"/></svg>

<?xml version="1.0" encoding="utf-8"?>
<!-- Generated by IcoMoon.io -->
<!DOCTYPE svg PUBLIC "-//W3C//DTD SVG 1.1//EN" "http://www.w3.org/Graphics/SVG/1.1/DTD/svg11.dtd">
<svg version="1.1" xmlns="http://www.w3.org/2000/svg" xmlns:xlink="http://www.w3.org/1999/xlink" width="32" height="32" viewBox="0 0 32 32">
<path d="M2 2h8v8h-8zM12 2h8v8h-8zM22 2h8v8h-8zM2 12h8v8h-8zM12 12h8v8h-8zM22 12h8v8h-8zM2 22h8v8h-8zM12 22h8v8h-8zM22 22h8v8h-8z"></path>
</svg>
